packages/ffe-icons/icons/open/400/sm/filter_list.svg

<svg xmlns="http://www.w3.org/2000/svg" height="20" viewBox="0 -960 960 960" width="20"><path d="M420-264q-15.3 0-25.65-10.289-10.35-10.29-10.35-25.5Q384-315 394.35-325.5 404.7-336 420-336h120q15.3 0 25.65 10.289 10.35 10.29 10.35 25.5Q576-285 565.65-274.5 555.3-264 540-264H420ZM276-444q-15.3 0-25.65-10.289-10.35-10.29-10.35-25.5Q240-495 250.35-505.5 260.7-516 276-516h408q15.3 0 25.65 10.289 10.35 10.29 10.35 25.5Q720-465 709.65-454.5 699.3-444 684-444H276Zm-96-180q-15.3 0-25.65-10.289-10.35-10.29-10.35-25.5Q144-675 154.35-685.5 164.7-696 180-696h600q15.3 0 25.65 10.289 10.35 10.29 10.35 25.5Q816-645 805.65-634.5 795.3-624 780-624H180Z"/></svg>

<svg xmlns="http://www.w3.org/2000/svg" height="20" viewBox="0 -960 960 960" width="20"><path d="M420-264q-15.3 0-25.65-10.29Q384-284.58 384-299.79t10.35-25.71Q404.7-336 420-336h120q15.3 0 25.65 10.29Q576-315.42 576-300.21t-10.35 25.71Q555.3-264 540-264H420ZM276-444q-15.3 0-25.65-10.29Q240-464.58 240-479.79t10.35-25.71Q260.7-516 276-516h408q15.3 0 25.65 10.29Q720-495.42 720-480.21t-10.35 25.71Q699.3-444 684-444H276Zm-96-180q-15.3 0-25.65-10.29Q144-644.58 144-659.79t10.35-25.71Q164.7-696 180-696h600q15.3 0 25.65 10.29Q816-675.42 816-660.21t-10.35 25.71Q795.3-624 780-624H180Z"/></svg>
